X: 18
T: Song of Final Visit to the Vapor Lodge
C: Teton Sioux band 1911-1914
N: Derived from sioux018.krn
O: South Dakota, U.S.A.
N: Teton Sioux Music by Frances Densmore, 1918
Z: transcribed to **kern format by Craig Sapp
L: 1/8
M: 3/4
Q: 1/4=58
K: D clef=bass
%%linebreak <none>
F F3/ F/ [I:setbarnb 1]| 
F2>F2 F3/ F/ ||  
[M:2/4]E4 | 
E2D D | 
D2D2- | 
D2D3/ E/ | 
E4 ||  
[M:3/4]E4E3/ D/ | 
D4D2 ||  
[M:2/4]D3B, | 
B, B, B, A, | 
B,4 | 
B,> B, B, B,3// D// | 
B,3B, | 
B, D/ D/ B, A, | 
A,4 | 
A,4 | 
F,2B,3/ B,/ | 
B,2F, F, ||  
[M:3/4]F,2F,4 | 
F,4F,2 |]  



